src/actions/symbolic/lang-class-symbolic.svg

<svg height="16px" viewBox="0 0 16 16" width="16px" xmlns="http://www.w3.org/2000/svg" xmlns:xlink="http://www.w3.org/1999/xlink">
    <g fill="#363636">
        <path d="m 11 0 c -1.109375 0 -2 0.914062 -2 2.015625 v 4.777344 l -0.851562 0.851562 c -0.191407 0.191407 -0.199219 0.496094 -0.015626 0.691407 l 0.867188 0.953124 v 4.664063 c 0 0.65625 0.234375 1.207031 0.625 1.5625 c 0.386719 0.351563 0.894531 0.496094 1.390625 0.484375 l -0.03125 -1 c -0.277344 0.007812 -0.519531 -0.074219 -0.6875 -0.226562 c -0.167969 -0.152344 -0.296875 -0.386719 -0.296875 -0.820313 v -4.859375 c 0 -0.125 -0.046875 -0.246094 -0.128906 -0.335938 l -0.679688 -0.742187 l 0.664063 -0.664063 c 0.09375 -0.09375 0.144531 -0.21875 0.144531 -0.351562 v -4.984375 c 0 -0.585937 0.421875 -1.015625 1 -1.015625 z m 0 0"/>
        <path d="m 5 9 c -1.332031 0 -2.273438 0.8125 -2.644531 1.550781 c -0.367188 0.738281 -0.355469 1.449219 -0.355469 1.449219 v 1 s -0.011719 0.707031 0.355469 1.445312 c 0.371093 0.738282 1.3125 1.554688 2.644531 1.554688 h 2 v -2 h -2 c -0.664062 0 -0.722656 -0.1875 -0.855469 -0.449219 c -0.128906 -0.261719 -0.144531 -0.550781 -0.144531 -0.550781 v -1 s 0.011719 -0.292969 0.144531 -0.554688 c 0.128907 -0.261718 0.1875 -0.445312 0.855469 -0.445312 h 2 v -2 z m 0 0"/>
        <path d="m 13.015625 0 v 1 c 0.578125 0 1 0.429688 1 1.015625 v 4.984375 c 0 0.132812 0.050781 0.257812 0.144531 0.351562 l 0.664063 0.664063 l -0.679688 0.742187 c -0.082031 0.089844 -0.128906 0.210938 -0.128906 0.335938 v 4.859375 c 0 0.433594 -0.128906 0.667969 -0.296875 0.820313 c -0.167969 0.152343 -0.410156 0.234374 -0.691406 0.226562 l -0.027344 1 c 0.496094 0.011719 1 -0.132812 1.390625 -0.484375 c 0.386719 -0.355469 0.625 -0.90625 0.625 -1.5625 v -4.664063 l 0.867187 -0.953124 c 0.179688 -0.195313 0.175782 -0.5 -0.015624 -0.691407 l -0.851563 -0.851562 v -4.777344 c 0 -1.101563 -0.890625 -2.015625 -2 -2.015625 z m 0 0"/>
    </g>
</svg>

<svg xmlns="http://www.w3.org/2000/svg" width="16" height="16">
    <g fill="#050505" opacity=".7">
        <path d="M11 0C9.89 0 9 .914 9 2.016v4.777l-.852.852a.495.495 0 0 0-.015.69L9 9.29v4.664c0 .656.234 1.207.625 1.563.387.351.895.496 1.39.484l-.03-1c-.278.008-.52-.074-.688-.227-.168-.152-.297-.386-.297-.82v-4.86a.5.5 0 0 0-.129-.335l-.68-.742.664-.664A.493.493 0 0 0 10 7V2.016C10 1.43 10.422 1 11 1zM5 9c-1.332 0-2.273.813-2.645 1.55C1.988 11.29 2 12 2 12v1s-.012.707.355 1.445C2.727 15.184 3.668 16 5 16h2v-2H5c-.664 0-.723-.187-.855-.45C4.015 13.29 4 13 4 13v-1s.012-.293.145-.555C4.273 11.184 4.332 11 5 11h2V9zM13.016 0v1c.578 0 1 .43 1 1.016V7c0 .133.05.258.144.352l.664.664-.68.742a.5.5 0 0 0-.128.336v4.86c0 .433-.13.667-.297.82-.168.152-.41.234-.692.226L13 16c.496.012 1-.133 1.39-.484.387-.356.626-.907.626-1.563V9.29l.867-.953a.5.5 0 0 0-.016-.691l-.851-.852V2.016c0-1.102-.891-2.016-2-2.016zm0 0"/>
    </g>
</svg>
